img/icons/catalog.svg

<svg width="20" height="18" viewBox="0 0 20 18" fill="none" xmlns="http://www.w3.org/2000/svg">
<path d="M14 5C14 2.79086 12.2091 1 10 1C7.79086 1 6 2.79086 6 5M19 8.19995V13.8C19 14.9201 19.0002 15.4802 18.7822 15.908C18.5905 16.2844 18.2841 16.5902 17.9078 16.782C17.48 17 16.9203 17 15.8002 17H4.2002C3.08009 17 2.51962 17 2.0918 16.782C1.71547 16.5902 1.40973 16.2844 1.21799 15.908C1 15.4802 1 14.9201 1 13.8V8.19995C1 7.07985 1 6.51986 1.21799 6.09204C1.40973 5.71572 1.71547 5.40973 2.0918 5.21799C2.51962 5 3.08009 5 4.2002 5H15.8002C16.9203 5 17.48 5 17.9078 5.21799C18.2841 5.40973 18.5905 5.71572 18.7822 6.09204C19.0002 6.51986 19 7.07985 19 8.19995Z" stroke="#8C8D92" stroke-width="2" stroke-linecap="round" stroke-linejoin="round"/>
</svg>

<svg width="20" height="18" fill="none" xmlns="http://www.w3.org/2000/svg"><path d="M14 5a4 4 0 0 0-8 0m13 3.2v5.6c0 1.12 0 1.68-.218 2.108a2 2 0 0 1-.874.874C17.48 17 16.92 17 15.8 17H4.2c-1.12 0-1.68 0-2.108-.218a2 2 0 0 1-.874-.874C1 15.48 1 14.92 1 13.8V8.2c0-1.12 0-1.68.218-2.108a2 2 0 0 1 .874-.874C2.52 5 3.08 5 4.2 5h11.6c1.12 0 1.68 0 2.108.218a2 2 0 0 1 .874.874C19 6.52 19 7.08 19 8.2Z" stroke="#8C8D92" stroke-width="2" stroke-linecap="round" stroke-linejoin="round"/></svg>
